images/icon/gameMenu_icon4_Dragon_front.svg

<svg height="76" viewBox="0 0 74 76" width="74" xmlns="http://www.w3.org/2000/svg" xmlns:xlink="http://www.w3.org/1999/xlink"><linearGradient id="a"><stop offset="0" stop-color="#c8aa82"/><stop offset=".39972" stop-color="#7c6341"/><stop offset="1" stop-color="#afa286"/></linearGradient><linearGradient id="b" x1="24.133%" x2="253.116%" xlink:href="#a" y1="39.774%" y2="67.156%"/><linearGradient id="c" x1="24.133%" x2="253.116%" xlink:href="#a" y1="39.777%" y2="67.152%"/><linearGradient id="d" x1="25.568%" x2="241.843%" xlink:href="#a" y1="0%" y2="133.887%"/><mask id="e" fill="#fff"><path d="m0 0h72.828v74.938h-72.828z" fill="#fff" fill-rule="evenodd"/></mask><g fill="none" fill-rule="evenodd" transform="translate(.815 .338)"><path d="m51.4700817 48.1803818s-.1162412 0-.3143631.0219323m6.3243272 3.7869785s-.0804185 0-.2273649.0146215m-43.7472045-31.9264217c-.0073107.0080419-.0146215.0080419-.0146215.0080419v-.0080419zm.3220394-.3362954c-.1096615.1096616-.2200541.227365-.3216738.3362954" fill="#021b3b"/><path d="m43.9473002 31.0728894c0 3.6341833 2.94624 6.5796923 6.5796923 6.5796923 1.9527065 0 3.6926695-.85536 4.8982154-2.1932308h16.6685538v4.0209231s-1.4621538 3.6553846-7.3107692 3.6553846h-7.3107692s-3.6553847 3.6553846-7.3107693 3.6553846c-1.1916554 0-2.785403-.3143631-4.3864615-.8692505l-.8107643.2412554c2.1639877.4452259 4.2395151 1.1324382 6.1914904 2.0397046 2.2005416 1.0088862 4.248288 2.2882708 6.0971816 3.8016 6.4415188 5.2418216 10.5501711 13.2251816 10.5501711 22.1808739l-2.727648.0212012h-57.22870158c-3.88128738 0-7.03296-3.1509415-7.03296-7.0322289v-.256608c1.0235077.5929034 2.20858339.9291988 3.47261539.9291988 3.83084307 0 6.93060919-3.0997662 6.93060919-6.9313403 0-3.8308431-3.09976612-6.93792-6.93060919-6.93792-1.264032 0-2.44910769.3362953-3.47261539.9291987v-9.3212307h3.14436185v-1.0607927s.21932308-14.7816443 9.53324303-24.4325907v-.0065797s.0073108 0 .0138905-.0080419h-.0138905c-6.01749411 0-6.17759995-6.1768689-6.17759995-6.1768689-3.63345231 0-6.57969231-2.9469711-6.57969231-6.58773415 0-3.6334523 2.94624-6.5796923 6.57969231-6.5796923 0 0 2.92430765 8.75172184 10.96615385 8.75172184h22.743072s4.0209231-.29974154 4.0209231 4.40766281h4.7673526s4.7366474-.160837 4.7366474 5.8486153h8.0133341c0-2.6318769 2.1347446-4.7666215 4.7658905-4.7666215 2.6318769 0 4.7666215 2.1347446 4.7666215 4.7666215v6.9452308h-16.6685538c-1.2055459-1.3451815-2.9455089-2.1932308-4.8982154-2.1932308-3.6334523 0-6.5796923 2.94624-6.5796923 6.5796924" fill="#021b3b"/><path d="m40.0120593 17.5280079.4232936.4232935c1.6186043 1.6193354 3.8147593 2.5287951 6.1044923 2.5287951v-2.9520886h-5.5064714z" fill="url(#b)"/><path d="m23.7969925 48.1839641-.4225625.4225624c-1.6193354 1.6193354-3.8154904 2.5287951-6.1044923 2.5287951v-2.9513575h5.5057403z" fill="url(#c)"/><path d="m28.5232586 53.3072049v-5.1270424h-1.4621539v5.1270424c0 4.7534622-3.8673969 8.6208591-8.6215901 8.6208591h-1.1697231v1.4621538h1.1697231c5.5605711 0 10.083744-4.523904 10.083744-10.0830129" fill="#957e5c"/><path d="m34.0884354 52.3069455v-4.1269293h-1.4621538v4.1269293c0 9.6801895-5.2096542 15.9352837-13.2727015 15.9352837h-2.0835693v1.4621538h2.0835693c8.9513058 0 14.7348553-6.8289895 14.7348553-17.3974375" fill="#957e5c"/><path d="m43.2198055 31.0707692c0 4.0311582 3.2796111 7.3107693 7.3107693 7.3107693 1.957824 0 3.8381538-.7954117 5.2103852-2.1932308h15.6253071v3.1275471c-.2968173.5812061-1.8510868 3.0866067-6.5796923 3.0866067h-7.6134351l-.2142055.2142056c-.0343607.0343606-3.4799262 3.4411791-6.7938979 3.4411791-1.035936 0-2.4169403-.2639188-3.8140283-.7157244.9262745-1.7063335 1.2552591-3.7226436 1.2552591-5.132891v-.731077h-7.6763077v-6.3128492h.0182769l-.0182769-.7493538v-10.9793133l-.4605785-.1835003c-.0650658-.0255877-6.1308111-2.490048-6.7917046-6.6199015h12.3698215v-.0116972l4.7856296-.0007311c.0080418-.0138905 1.5038252-.0138905 2.6252972 1.0710277.9036111.8736369 1.3619963 2.2356332 1.3619963 4.0472418v.7310769h9.4718326v-.7310769c0-2.2261292 1.8108776-4.0362757 4.0370068-4.0362757 2.2253982 0 4.0370068 1.8101465 4.0370068 4.0362757v6.2141539h-15.6253071c-1.3729625-1.3978191-3.2532923-2.1932308-5.2103852-2.1932308-4.0311582 0-7.3107693 3.2796111-7.3107693 7.3107692zm19.7237243 28.568293c-4.837536 8.5104664-13.8312443 13.7917661-23.6349858 13.8319753l-4.1766425.0021933h-5.626368c3.5391434-1.5557317 6.4671065-4.2526745 8.3072271-7.6273256h1.3839286c8.2078006 0 15.4469243-5.028347 18.3595348-12.6096147 2.1047705 1.85328 3.9214966 4.0143433 5.3873058 6.4027717zm-14.6997636 13.829051c6.4078892-2.1223163 11.9450658-6.4605267 15.5405021-12.374939 1.9943779 3.7321476 3.1604455 7.946075 3.2759557 12.3668972zm-40.40004189.0051176c-3.15825231 0-5.78208739-2.3365219-6.23096862-5.3726843.85097354.3165563 1.75604677.4803175 2.67208616.4803175 4.22708677 0 7.66607265-3.4389858 7.66607265-7.6668037 0-4.2270868-3.43898588-7.6660726-7.66607265-7.6660726-.94016493 0-1.8693637.1725341-2.74007631.5044431v-7.4394388h12.54162466v-.7310769c0-2.5595003 2.0828381-4.6416074 4.6423384-4.6416074h2.9908357 16.746048v16.5998326c0 8.7590326-7.1024123 15.8877637-15.8504788 15.9330905h-5.8968664zm33.18285049-26.3187693h-1.0988086v-6.2141538h6.1768689c-.1586437 1.7918695-.969408 6.2141538-5.0780603 6.2141538zm-1.0988086 10.3856788v-1.5783951c4.4537206-.3297157 8.0893661-3.6290658 8.9213316-7.9256049 2.7430007 1.0140037 5.2725268 2.4410659 7.5162019 4.2066166-2.5726597 7.2786019-9.4023803 12.1409945-17.1686105 12.1409945h-.6740529c.9036111-2.1018462 1.4051299-4.4149736 1.4051299-6.8436111zm5.2301243-10.5838006c.7764037.1696098 1.5389169.3699249 2.2860775.6016763-.627264 3.7182572-3.70656 6.6096665-7.5162018 6.9415754v-5.882976h1.0988086c1.8086843 0 3.1450929-.6718597 4.1313157-1.6602757zm-40.47168742-2.42352c.00219323-.1403668.31582523-13.4912935 8.30722712-22.8110622.5556184 2.2444062 2.2202806 4.9391557 6.0021415 5.2301243.3048591 2.4673847 1.9929157 6.2134228 6.8531151 6.2134228h12.6191187v6.3128492h-16.7482412-2.9908357c-3.1187741 0-5.6987446 2.3504124-6.0606277 5.3726844h-7.98189782zm3.44410338-29.899584h12.53577604c4.0889132 0 5.1094966 3.212352 5.3631803 4.7154461h-12.535045c-.0219323 0-.0416713-.0029243-.0636036-.0029243l-.122821-.123552c-.0372849.0365539-.0701834.075301-.1074683.1118548-3.83815382-.1542572-4.82291444-3.2372086-5.07001844-4.7008246zm24.89097604 12.3552c4.0881821 0 5.1094966 3.212352 5.3639113 4.7147151h-12.536507c-4.0889133 0-5.1094966-3.2130831-5.3639114-4.7147151zm-18.713376-6.1776h12.535776c4.0881821 0 5.1094966 3.212352 5.3639113 4.7154461h-12.536507c-4.0896443 0-5.1094966-3.2138141-5.3631803-4.7154461zm-12.84575265-13.49421785c0-3.06321231 2.36357169-5.58396554 5.3631803-5.83399385.8144197 1.95270646 4.17006275 8.7312517 11.45743755 8.7312517l22.7935163-.0014622c.0168148-.0029243 1.3261735-.0723766 2.2487926.7939496.5278376.4956701.836352 1.2282092.9423582 2.1647187h-13.1104025v.731077c0 4.8207212 5.6256369 7.7428357 7.3107692 8.5104664v5.6892406c-.9591729-1.3100898-2.4798129-2.3628406-4.771008-2.5390301-.2909686-2.3482191-1.8408517-5.8434979-6.178331-6.1776-.3048591-2.4681157-1.9914536-6.2141539-6.852384-6.2141539h-13.34946465c-3.22770462 0-5.854464-2.6267593-5.854464-5.85446395zm49.06842095 17.90553595c1.6529649 0 3.2386707.7113379 4.3499077 1.9505133l.2178609.2427175h17.7300775v-7.6763077c0-3.031776-2.4673846-5.4984295-5.4991606-5.4984295-2.784672 0-5.0919508 2.0791828-5.4509095 4.7673526h-6.6184394c-.1213588-1.8708258-.7208419-3.3373662-1.7852899-4.3674535-1.5835126-1.5323373-3.5983606-1.4782376-3.6656197-1.4811619h-4.0618633c-.123552-1.3751557-.6053317-2.4608049-1.4380283-3.23428429-1.4007434-1.29985477-3.2576788-1.178496-3.2825354-1.17337846h-22.7438031c-7.4094646 0-10.15977601-7.91610093-10.27309293-8.25312739l-.16814769-.49859446h-.52491323c-4.03481354 0-7.31661785 3.28180431-7.31661785 7.31661785 0 3.80671755 2.92284554 6.94011325 6.64110277 7.28225725.27122954 2.1881132 1.63761231 5.36976 5.33320613 6.0650141-8.43077905 9.7021219-8.74148675 23.246784-8.75025967 23.8572333v.3297157h-3.14143754v11.3258436l1.09734646-.6353058c.93870277-.5431902 2.01265477-.8312345 3.1048837-.8312345 3.42144 0 6.20391875 2.7832099 6.20391875 6.2039188 0 3.42144-2.78247875 6.2046499-6.20391875 6.2046499-1.09222893 0-2.16618093-.2880444-3.1048837-.8312345l-1.09734646-.6353059v1.5228333c0 4.2789932 3.48211939 7.7603815 7.76111262 7.7603815h8.87454279 5.8127926v.0021932c.028512 0 .0562929-.0021932.0840738-.0021932h2.0733342 8.6691101v.0007311h5.8391114v.0014621c.0116973 0 .0226634-.0014621.0343606-.0014621l25.850149.0014621 3.450683-.0263187v-.7252283c0-11.6877268-6.9898264-22.1048419-17.3045907-26.7596086 3.0193477-.4817797 5.7506511-2.8278056 6.5409452-3.5618068h7.0183385c6.2711778 0 7.9226806-3.9463532 7.9899397-4.115232l.0519064-.1308628v-4.8923668h-17.7300775l-.218592.2434487c-1.1105059 1.2384443-2.6954806 1.9497821-4.3491766 1.9497821-3.2247803 0-5.8486154-2.6238351-5.8486154-5.8486154s2.6238351-5.8486154 5.8486154-5.8486154z" fill="url(#d)" mask="url(#e)"/></g></svg>

<svg xmlns="http://www.w3.org/2000/svg" xmlns:xlink="http://www.w3.org/1999/xlink" width="74" height="76" viewBox="0 0 74 76">
  <defs>
    <linearGradient id="gamemenu_icon3_dragon_front-a" x1="24.133%" x2="253.116%" y1="39.774%" y2="67.156%">
      <stop offset="0%" stop-color="#C8AA82"/>
      <stop offset="39.972%" stop-color="#7C6341"/>
      <stop offset="100%" stop-color="#AFA286"/>
    </linearGradient>
    <linearGradient id="gamemenu_icon3_dragon_front-b" x1="24.133%" x2="253.116%" y1="39.777%" y2="67.152%">
      <stop offset="0%" stop-color="#C8AA82"/>
      <stop offset="39.972%" stop-color="#7C6341"/>
      <stop offset="100%" stop-color="#AFA286"/>
    </linearGradient>
    <polygon id="gamemenu_icon3_dragon_front-c" points="0 0 72.828 0 72.828 74.938 0 74.938"/>
    <linearGradient id="gamemenu_icon3_dragon_front-d" x1="25.568%" x2="241.843%" y1="0%" y2="133.887%">
      <stop offset="0%" stop-color="#C8AA82"/>
      <stop offset="39.972%" stop-color="#7C6341"/>
      <stop offset="100%" stop-color="#AFA286"/>
    </linearGradient>
  </defs>
  <g fill="none" fill-rule="evenodd" transform="translate(.815 .338)">
    <path fill="#021B3B" d="M51.4700817 48.1803818C51.4700817 48.1803818 51.3538405 48.1803818 51.1557186 48.2023141M57.4800458 51.9892926C57.4800458 51.9892926 57.3996273 51.9892926 57.2526809 52.0039141M13.5054764 20.0774924C13.4981657 20.0855343 13.4908549 20.0855343 13.4908549 20.0855343L13.4908549 20.0774924 13.5054764 20.0774924zM13.8275158 19.741197C13.7178543 19.8508586 13.6074617 19.968562 13.505842 20.0774924"/>
    <path fill="#021B3B" d="M43.9473002,31.0728894 C43.9473002,34.7070727 46.8935402,37.6525817 50.5269925,37.6525817 C52.479699,37.6525817 54.219662,36.7972217 55.4252079,35.4593509 L72.0937617,35.4593509 L72.0937617,39.480274 C72.0937617,39.480274 70.6316079,43.1356586 64.7829925,43.1356586 L57.4722233,43.1356586 C57.4722233,43.1356586 53.8168386,46.7910432 50.161454,46.7910432 C48.9697986,46.7910432 47.376051,46.4766801 45.7749925,45.9217927 L44.9642282,46.1630481 C47.1282159,46.608274 49.2037433,47.2954863 51.1557186,48.2027527 C53.3562602,49.2116389 55.4040066,50.4910235 57.2529002,52.0043527 C63.694419,57.2461743 67.8030713,65.2295343 67.8030713,74.1852266 L65.0754233,74.2064278 L7.84672172,74.2064278 C3.96543434,74.2064278 0.813761723,71.0554863 0.813761723,67.1741989 L0.813761723,66.9175909 C1.83726942,67.5104943 3.02234511,67.8467897 4.28637711,67.8467897 C8.11722018,67.8467897 11.2169863,64.7470235 11.2169863,60.9154494 C11.2169863,57.0846063 8.11722018,53.9775294 4.28637711,53.9775294 C3.02234511,53.9775294 1.83726942,54.3138247 0.813761723,54.9067281 L0.813761723,45.5854974 L3.95812357,45.5854974 L3.95812357,44.5247047 C3.95812357,44.5247047 4.17744665,29.7430604 13.4913666,20.092114 L13.4913666,20.0855343 C13.4913666,20.0855343 13.4986774,20.0855343 13.5052571,20.0774924 L13.4913666,20.0774924 C7.47387249,20.0774924 7.31376665,13.9006235 7.31376665,13.9006235 C3.68031434,13.9006235 0.734074338,10.9536524 0.734074338,7.31288935 C0.734074338,3.67943705 3.68031434,0.733197046 7.31376665,0.733197046 C7.31376665,0.733197046 10.2380743,9.48491889 18.2799205,9.48491889 L41.0229925,9.48491889 C41.0229925,9.48491889 45.0439156,9.18517735 45.0439156,13.8925817 L49.8112682,13.8925817 C49.8112682,13.8925817 54.5479156,13.7317447 54.5479156,19.741197 L62.5612497,19.741197 C62.5612497,17.1093201 64.6959943,14.9745755 67.3271402,14.9745755 C69.9590171,14.9745755 72.0937617,17.1093201 72.0937617,19.741197 L72.0937617,26.6864278 L55.4252079,26.6864278 C54.219662,25.3412463 52.479699,24.493197 50.5269925,24.493197 C46.8935402,24.493197 43.9473002,27.439437 43.9473002,31.0728894"/>
    <path fill="url(#gamemenu_icon3_dragon_front-a)" d="M40.0120593,17.5280079 L40.4353529,17.9513014 C42.0539572,19.5706368 44.2501122,20.4800965 46.5398452,20.4800965 L46.5398452,17.5280079 L41.0333738,17.5280079 L40.0120593,17.5280079 Z"/>
    <path fill="url(#gamemenu_icon3_dragon_front-b)" d="M23.7969925,48.1839641 L23.37443,48.6065265 C21.7550946,50.2258619 19.5589396,51.1353216 17.2699377,51.1353216 L17.2699377,48.1839641 L22.775678,48.1839641 L23.7969925,48.1839641 Z"/>
    <path fill="#957E5C" d="M28.5232586,53.3072049 L28.5232586,48.1801625 L27.0611047,48.1801625 L27.0611047,53.3072049 C27.0611047,58.0606671 23.1937078,61.928064 18.4395146,61.928064 L17.2697915,61.928064 L17.2697915,63.3902178 L18.4395146,63.3902178 C24.0000857,63.3902178 28.5232586,58.8663138 28.5232586,53.3072049"/>
    <path fill="#957E5C" d="M34.0884354,52.3069455 L34.0884354,48.1800162 L32.6262816,48.1800162 L32.6262816,52.3069455 C32.6262816,61.987135 27.4166274,68.2422292 19.3535801,68.2422292 L17.2700108,68.2422292 L17.2700108,69.704383 L19.3535801,69.704383 C28.3048859,69.704383 34.0884354,62.8753935 34.0884354,52.3069455"/>
    <mask id="gamemenu_icon3_dragon_front-e" fill="#fff">
      <use xlink:href="#gamemenu_icon3_dragon_front-c"/>
    </mask>
    <path fill="url(#gamemenu_icon3_dragon_front-d)" d="M43.2198055,31.0707692 C43.2198055,35.1019274 46.4994166,38.3815385 50.5305748,38.3815385 C52.4883988,38.3815385 54.3687286,37.5861268 55.74096,36.1883077 L71.3662671,36.1883077 L71.3662671,39.3158548 C71.0694498,39.8970609 69.5151803,42.4024615 64.7865748,42.4024615 L57.1731397,42.4024615 L56.9589342,42.6166671 C56.9245735,42.6510277 53.479008,46.0578462 50.1650363,46.0578462 C49.1291003,46.0578462 47.748096,45.7939274 46.351008,45.3421218 C47.2772825,43.6357883 47.6062671,41.6194782 47.6062671,40.2092308 L47.6062671,39.4781538 L39.9299594,39.4781538 L39.9299594,33.1653046 L39.9482363,33.1653046 L39.9299594,32.4159508 L39.9299594,21.4366375 L39.4693809,21.2531372 C39.4043151,21.2275495 33.3385698,18.7630892 32.6776763,14.6332357 L45.0474978,14.6332357 L45.0474978,14.6215385 L49.8331274,14.6208074 C49.8411692,14.6069169 51.3369526,14.6069169 52.4584246,15.6918351 C53.3620357,16.565472 53.8204209,17.9274683 53.8204209,19.7390769 L53.8204209,20.4701538 L63.2922535,20.4701538 L63.2922535,19.7390769 C63.2922535,17.5129477 65.1031311,15.7028012 67.3292603,15.7028012 C69.5546585,15.7028012 71.3662671,17.5129477 71.3662671,19.7390769 L71.3662671,25.9532308 L55.74096,25.9532308 C54.3679975,24.5554117 52.4876677,23.76 50.5305748,23.76 C46.4994166,23.76 43.2198055,27.0396111 43.2198055,31.0707692 L43.2198055,31.0707692 Z M62.9435298,59.6390622 C58.1059938,68.1495286 49.1122855,73.4308283 39.308544,73.4710375 L35.1319015,73.4732308 L29.5055335,73.4732308 C33.0446769,71.9174991 35.97264,69.2205563 37.8127606,65.8459052 L39.1966892,65.8459052 C47.4044898,65.8459052 54.6436135,60.8175582 57.556224,53.2362905 C59.6609945,55.0895705 61.4777206,57.2506338 62.9435298,59.6390622 L62.9435298,59.6390622 Z M48.2437662,73.4681132 C54.6516554,71.3457969 60.188832,67.0075865 63.7842683,61.0931742 C65.7786462,64.8253218 66.9447138,69.0392492 67.060224,73.4600714 L48.2437662,73.4681132 Z M7.84372431,73.4732308 C4.685472,73.4732308 2.06163692,71.1367089 1.61275569,68.1005465 C2.46372923,68.4171028 3.36880246,68.580864 4.28484185,68.580864 C8.51192862,68.580864 11.9509145,65.1418782 11.9509145,60.9140603 C11.9509145,56.6869735 8.51192862,53.2479877 4.28484185,53.2479877 C3.34467692,53.2479877 2.41547815,53.4205218 1.54476554,53.7524308 L1.54476554,46.312992 L14.0863902,46.312992 L14.0863902,45.5819151 C14.0863902,43.0224148 16.1692283,40.9403077 18.7287286,40.9403077 L21.7195643,40.9403077 L38.4656123,40.9403077 L38.4656123,57.5401403 C38.4656123,66.2991729 31.3632,73.427904 22.6151335,73.4732308 L16.7182671,73.4732308 L7.84372431,73.4732308 Z M41.0265748,47.1544615 L39.9277662,47.1544615 L39.9277662,40.9403077 L46.1046351,40.9403077 C45.9459914,42.7321772 45.1352271,47.1544615 41.0265748,47.1544615 L41.0265748,47.1544615 Z M39.9277662,57.5401403 L39.9277662,55.9617452 C44.3814868,55.6320295 48.0171323,52.3326794 48.8490978,48.0361403 C51.5920985,49.050144 54.1216246,50.4772062 56.3652997,52.2427569 C53.79264,59.5213588 46.9629194,64.3837514 39.1966892,64.3837514 L38.5226363,64.3837514 C39.4262474,62.2819052 39.9277662,59.9687778 39.9277662,57.5401403 L39.9277662,57.5401403 Z M45.1578905,46.9563397 C45.9342942,47.1259495 46.6968074,47.3262646 47.443968,47.558016 C46.816704,51.2762732 43.737408,54.1676825 39.9277662,54.4995914 L39.9277662,48.6166154 L41.0265748,48.6166154 C42.8352591,48.6166154 44.1716677,47.9447557 45.1578905,46.9563397 L45.1578905,46.9563397 Z M4.68620308,44.5328197 C4.68839631,44.3924529 5.00202831,31.0415262 12.9934302,21.7217575 C13.5490486,23.9661637 15.2137108,26.6609132 18.9955717,26.9518818 C19.3004308,29.4192665 20.9884874,33.1653046 25.8486868,33.1653046 L38.4678055,33.1653046 L38.4678055,39.4781538 L21.7195643,39.4781538 L18.7287286,39.4781538 C15.6099545,39.4781538 13.029984,41.8285662 12.6681009,44.8508382 L4.68620308,44.8508382 L4.68620308,44.5328197 Z M8.13030646,14.6332357 L20.6660825,14.6332357 C24.7549957,14.6332357 25.7755791,17.8455877 26.0292628,19.3486818 L13.4942178,19.3486818 C13.4722855,19.3486818 13.4525465,19.3457575 13.4306142,19.3457575 L13.3077932,19.2222055 C13.2705083,19.2587594 13.2376098,19.2975065 13.2003249,19.3340603 C9.36217108,19.1798031 8.37741046,16.0968517 8.13030646,14.6332357 L8.13030646,14.6332357 Z M33.0212825,26.9884357 C37.1094646,26.9884357 38.1307791,30.2007877 38.3851938,31.7031508 L25.8486868,31.7031508 C21.7597735,31.7031508 20.7391902,28.4900677 20.4847754,26.9884357 L33.0212825,26.9884357 Z M14.3079065,20.8108357 L26.8436825,20.8108357 C30.9318646,20.8108357 31.9531791,24.0231877 32.2075938,25.5262818 L19.6710868,25.5262818 C15.5814425,25.5262818 14.5615902,22.3124677 14.3079065,20.8108357 L14.3079065,20.8108357 Z M1.46215385,7.31661785 C1.46215385,4.25340554 3.82572554,1.73265231 6.82533415,1.482624 C7.63975385,3.43533046 10.9953969,10.2138757 18.2827717,10.2138757 L41.076288,10.2124135 C41.0931028,10.2094892 42.4024615,10.1400369 43.3250806,11.0063631 C43.8529182,11.5020332 44.1614326,12.2345723 44.2674388,13.1710818 L31.1570363,13.1710818 L31.1570363,13.9021588 C31.1570363,18.72288 36.7826732,21.6449945 38.4678055,22.4126252 L38.4678055,28.1018658 C37.5086326,26.791776 35.9879926,25.7390252 33.6967975,25.5628357 C33.4058289,23.2146166 31.8559458,19.7193378 27.5184665,19.3852357 C27.2136074,16.91712 25.5270129,13.1710818 20.6660825,13.1710818 L7.31661785,13.1710818 C4.08891323,13.1710818 1.46215385,10.5443225 1.46215385,7.31661785 L1.46215385,7.31661785 Z M50.5305748,25.2221538 C52.1835397,25.2221538 53.7692455,25.9334917 54.8804825,27.1726671 L55.0983434,27.4153846 L72.8284209,27.4153846 L72.8284209,19.7390769 C72.8284209,16.7073009 70.3610363,14.2406474 67.3292603,14.2406474 C64.5445883,14.2406474 62.2373095,16.3198302 61.8783508,19.008 L55.2599114,19.008 C55.1385526,17.1371742 54.5390695,15.6706338 53.4746215,14.6405465 C51.8911089,13.1082092 49.8762609,13.1623089 49.8090018,13.1593846 L45.7471385,13.1593846 C45.6235865,11.7842289 45.1418068,10.6985797 44.3091102,9.92510031 C42.9083668,8.62524554 41.0514314,8.74660431 41.0265748,8.75172185 L18.2827717,8.75172185 C10.8733071,8.75172185 8.12299569,0.835620923 8.00967877,0.498594462 L7.84153108,1.03892279e-14 L7.31661785,1.03892279e-14 C3.28180431,1.03892279e-14 1.45449191e-13,3.28180431 1.45449191e-13,7.31661785 C1.45449191e-13,11.1233354 2.92284554,14.2567311 6.64110277,14.5988751 C6.91233231,16.7869883 8.27871508,19.9686351 11.9743089,20.6638892 C3.54352985,30.3660111 3.23282215,43.9106732 3.22404923,44.5211225 L3.22404923,44.8508382 L0.0826116923,44.8508382 L0.0826116923,56.1766818 L1.17995815,55.541376 C2.11866092,54.9981858 3.19261292,54.7101415 4.28484185,54.7101415 C7.70628185,54.7101415 10.4887606,57.4933514 10.4887606,60.9140603 C10.4887606,64.3355003 7.70628185,67.1187102 4.28484185,67.1187102 C3.19261292,67.1187102 2.11866092,66.8306658 1.17995815,66.2874757 L0.0826116923,65.6521698 L0.0826116923,67.1750031 C0.0826116923,71.4539963 3.56473108,74.9353846 7.84372431,74.9353846 L16.7182671,74.9353846 L22.5310597,74.9353846 L22.5310597,74.9375778 C22.5595717,74.9375778 22.5873526,74.9353846 22.6151335,74.9353846 L24.6884677,74.9353846 L33.3575778,74.9353846 L33.3575778,74.9361157 L39.1966892,74.9361157 L39.1966892,74.9375778 C39.2083865,74.9375778 39.2193526,74.9361157 39.2310498,74.9361157 L65.0811988,74.9375778 L68.5318818,74.9112591 L68.5318818,74.1860308 C68.5318818,62.498304 61.5420554,52.0811889 51.2272911,47.4264222 C54.2466388,46.9446425 56.9779422,44.5986166 57.7682363,43.8646154 L64.7865748,43.8646154 C71.0577526,43.8646154 72.7092554,39.9182622 72.7765145,39.7493834 L72.8284209,39.6185206 L72.8284209,34.7261538 L55.0983434,34.7261538 L54.8797514,34.9696025 C53.7692455,36.2080468 52.1842708,36.9193846 50.5305748,36.9193846 C47.3057945,36.9193846 44.6819594,34.2955495 44.6819594,31.0707692 C44.6819594,27.8459889 47.3057945,25.2221538 50.5305748,25.2221538 L50.5305748,25.2221538 Z" mask="url(#gamemenu_icon3_dragon_front-e)"/>
  </g>
</svg>
